X:884
T:Austrian Charge,The. GS.082
M:6/8
L:1/8
Q:120
S:George Spencer m/s, Leeds,1831
R:Jig
O:England
A:Leeds
N:The words 'the end' are written twice in the margin at the end of the
N:tune
H:1831
Z:vmp.Cherri Graebe
K:A major
Ace Adf | Ade cea | fed cBA | GBA GFE | Ace Bde |! cea dfa | edc BAG | 
A3 A3 :||: GBd Eed | ced cBA |! GBe Eed | cd^d e3 | aec afd | aed cBA |
 Bdc BAG | A3 A,3 ||
